X: 4
T: The Maid In The Meadow
R: jig
M: 6/8
L: 1/8
K: Gmaj
|: z |c3 B3 | AGA BGE | DEG AGA | BdB AGE |
c3 B3 | AGA BGE | DEG AGA | BGF G2 :|
|: D |GBd gdd | edd gdB | GBd gdB | AGA BGE |
GBd gdd | ede gdB | GAB AGA | BGF G2 :|


Tune 942	Setting 942

